!!!!SEGMENT: pl-wtm--r-2576_hertz-michal--krakowiak.krn
!!!cenid: 18xx:3124
!!!COM: Hertz, Michał
!!!COM-rismid: pe41023359
!!!CDT: 1844/09/28-~1918
!!!CNT: Polish
!!!OTL: Krakowiak
!!!PDT:
!!!AGN:
!!!SMS-siglum: PL-Wtm
!!!SMS-shelfmark: R 2576
!!!SMS-shelfwork: W
!!!SMS-variant:
!!!SMS-altvar:
!!!NIFC-rismid: 1001081767
!!!URL-scan: http://repozytorium.nifc.pl/skany/pl-wtm-nut--r2576
!!!ONB-nifc:
!!!key: b
**kern	**dynam	**kern	**dynam	**kern	**dynam
*part3	*part3	*part2	*part2	*part1	*part1
*staff3	*	*staff2	*	*staff1	*
*I"Fagotto 2do	*	*I"Fagotto 1mo	*	*I"Clarinetto 2do in C	*
*I'fag 2	*	*I'fag 1	*	*I'cl 2 in C	*
*Ifagot	*	*Ifagot	*	*Iclars	*
*ICww	*	*ICww	*	*ICww	*
*clefF4	*	*clefF4	*	*clefG2	*
*k[f#c#]	*	*k[f#c#]	*	*k[f#c#]	*
*b:	*	*b:	*	*b:	*
*M2/4	*	*M2/4	*	*M2/4	*
*all\right	*	*all\right	*	*all\right	*
*>[A,B,C,C,D,B]	*	*>[A,B,C,C,D,B]	*	*>[A,B,C,C,D,B]	*
=1	=1	=1	=1	=1	=1
*>A	*	*>A	*	*>A	*
!	!LO:DY:t=f:rj	!	!LO:DY:rj	!	!LO:DY:rj
8C#/	f	8C#\L	f	8e/L	f
8r	.	16e\L	.	16e/L	.
.	.	16f#\JJ	.	16f#/JJ	.
4r	.	16g\LL	.	16g/LL	.
.	.	16f#\	.	16f#/	.
.	.	16e\	.	16e/	.
.	.	16d\JJ	.	16d/JJ	.
=2	=2	=2	=2	=2	=2
!LO:TX:a:t=1	!	!	!	!	!
2r	.	16c#\LL	.	16c#/LL	.
.	.	16d\	.	16d/	.
.	.	16e\	.	16e/	.
.	.	16d\JJ	.	16d/JJ	.
.	.	16c#\LL	.	16c#/LL	.
.	.	16B\	.	16B/	.
.	.	16A\	.	16A/	.
.	.	16G#X\JJ	.	16G#X/JJ	.
=3	=3	=3	=3	=3	=3
8A\L	.	8A\L	.	8A/L	.
16A\L	.	16A\L	.	16A/L	.
16E\JJ	.	16E\JJ	.	16e/JJ	.
8A\L	.	8A\L	.	8A/L	.
16A\L	.	16A\L	.	16A/L	.
16E\JJ	.	16E\JJ	.	16e/JJ	.
=4	=4	=4	=4	=4	=4
8A\	.	8A\	.	8A/	.
8r	.	8r	.	8r	.
!LO:TX:t=[segno]:color=blue	!	!LO:TX:t=[segno]:color=blue	!	!LO:TX:t=[segno]:color=blue	!
4r;	.	4r;	.	4r;	.
!	!	!LO:LB:g=original	!	!LO:LB:g=original	!
=5||	=5||	=5||	=5||	=5||	=5||
*>B	*	*>B	*	*>B	*
*	*	*2\right	*	*	*
!	!LO:DY:rj	!	!LO:DY:rj	!	!LO:DY:rj
8AA/	f	[2A\	f	[2a/	f
8r	.	.	.	.	.
4r	.	.	.	.	.
=6	=6	=6	=6	=6	=6
8D\	.	2A\]	.	2a/]	.
8r	.	.	.	.	.
4r	.	.	.	.	.
!LO:LB:g=original	!	!	!	!	!
=7	=7	=7	=7	=7	=7
8GG/	.	16c#\LL	.	16c#/LL	.
.	.	16B\JJ	.	16B/JJ	.
8r	.	4e\	.	4e/	.
4r	.	.	.	.	.
.	.	16d\LL	.	16d/LL	.
.	.	16B\JJ	.	16B/JJ	.
=8	=8	=8	=8	=8	=8
8D\	.	8d\	.	8d/	.
8r	.	4A\	.	4A/	.
4r	.	.	.	.	.
.	.	(16F#\LL	.	(16F#/LL	.
.	.	16G\JJ)	.	16G/JJ)	.
=9	=9	=9	=9	=9	=9
(4C#/	.	(4A\	.	8.A/L	.
.	.	.	.	16B/Jk	.
4AA/)	.	4G\)	.	16c#/LL	.
.	.	.	.	16d/	.
.	.	.	.	16e/	.
.	.	.	.	16g/JJ	.
=10	=10	=10	=10	=10	=10
8D\	.	(16F#\LL	.	16f#/LL	.
.	.	16B\JJ)	.	16b/JJ	.
8r	.	4A\	.	4a/	.
4C#/	.	.	.	.	.
.	.	8r	.	16g#X/LL	.
.	.	.	.	16f#/JJ	.
!	!	!LO:LB:g=original	!	!LO:LB:g=original	!
=11	=11	=11	=11	=11	=11
8E\	.	2E\	.	8e/L	.
8r	.	.	.	8dd/J	.
8EE/	.	.	.	(8.cc#/L	.
8r	.	.	.	.	.
.	.	.	.	16b/Jk)	.
=12	=12	=12	=12	=12	=12
!LO:TX:b:t=rall&colon;	!	!LO:TX:b:t=rall&colon;	!	!	!
(4AA/	.	(4AA/	.	8b/L	.
!	!	!	!	!LO:TX:b:t=rall&colon;	!
.	.	.	.	[8a^/J	.
8A\)	.	8A\)	.	(16a/LL]	.
.	.	.	.	16g#X/	.
8r	.	8r	.	16gn/	.
.	.	.	.	16f#/JJ)	.
!LO:LB:g=original	!	!	!	!	!
=13	=13	=13	=13	=13	=13
!LO:TX:a:t=a tempo	!	!LO:TX:b:t=a tempo	!	!LO:TX:b:t=a tempo	!
.	.	.	.	(<8qee/	.
8AA\L	.	8A\	.	2a/)	.
8E\J	.	8r	.	.	.
4A\	.	4r	.	.	.
=14	=14	=14	=14	=14	=14
!LO:TX:t=P:problem:mixed beam	!	!	!	!	!
8DD/L	.	8D\	.	16dd\LL	.
.	.	.	.	16a\JJ	.
8F#\J	.	8r	.	4f#/	.
4A\	.	4r	.	.	.
.	.	.	.	(16cc#\LL	.
.	.	.	.	16b\JJ)	.
=15	=15	=15	=15	=15	=15
!LO:TX:t=P:problem:mixed beam	!	!	!	!	!
8GG/L	.	8G\	.	16a/LL	.
.	.	.	.	16g/JJ	.
8G\J	.	8r	.	4cc#\	.
4B\	.	4r	.	.	.
.	.	.	.	(16b/LL	.
.	.	.	.	16g/JJ)	.
=16	=16	=16	=16	=16	=16
!LO:TX:t=P:problem:mixed beam	!	!	!	!	!
8DD/L	.	8D\	.	8f#/	.
8F#\J	.	8r	.	4f#/	.
4A\	.	4r	.	.	.
.	.	.	.	(16d/LL	.
.	.	.	.	16e/JJ)	.!!linebreak:original
!	!	!LO:LB:g=original	!	!LO:LB:g=original	!
=17	=17	=17	=17	=17	=17
(4C#/	.	8.A\L	<	8.g/L	.
.	.	16B\Jk	.	16g/Jk	.
4AA/)	.	16c#\LL	.	16a\LL	.
.	.	16d\	.	16b\	.
.	.	16e\	.	16cc#\	.
.	.	16f#\JJ	[[	16ee\JJ	.
=18	=18	=18	=18	=18	=18
8D\	.	(4f#\	.	16dd\LL	.
.	.	.	.	16dd\J	.
8r	.	.	.	8ff#\J	.
4BB/	.	4d\)	.	8ff#\L	.
.	.	.	.	16r	.
.	.	.	.	16dd\Jk	.
!LO:LB:g=original	!	!	!	!	!
=19	=19	=19	=19	=19	=19
8GG/	.	8B\	.	4b\	.
8r	.	8r	.	.	.
4AA/	.	8A\	.	8cc#\L	.
.	.	8r	.	16r	.
.	.	.	.	16g\Jk	.
=20	=20	=20	=20	=20	=20
[4DD/	.	[4D\	.	8g/	.
.	.	.	.	4f#^>/	p
8DD/]	.	8D\]	.	.	.
8r	.	8r	.	(16c#/LL	.
.	.	.	.	16B/JJ)	.
=21||	=21||	=21||	=21||	=21||	=21||
!LO:TX:a:t=8	!	!	!LO:DY:rj	!	!
2r	.	4G\	p	(16A/LL	.
.	.	.	.	16B/J)	.
.	.	.	.	[8A/J	.
.	.	4F#\	.	4A/]	.
=22	=22	=22	=22	=22	=22
2r	.	8E\L	.	[4A/	.
.	.	8C#\J	.	.	.
.	.	8D\	.	8A/L]	.
.	.	8r	.	(16A/L	.
.	.	.	.	16G/JJ)	.
!	!	!LO:LB:g=original	!	!LO:LB:g=original	!
=23	=23	=23	=23	=23	=23
2r	.	4E\	.	(16F#/LL	.
.	.	.	.	16G/J)	.
.	.	.	.	[8F#/J	.
.	.	4D\	.	4F#/]	.
=24	=24	=24	=24	=24	=24
2r	.	8C#/L	.	[4F#/	.
.	.	8FF#/J	.	.	.
.	.	8BB/	.	8F#/L]	.
.	.	8r	.	16r	.
.	.	.	.	16d/Jk	.
=25	=25	=25	=25	=25	=25
2r	.	8.BB/L	.	(16e/LL	.
.	.	.	.	16d/JJ)	.
.	.	.	.	(16d/LL	.
.	.	16AA/Jk	.	16c#/JJ)	.
.	.	8.GG#X/L	.	(16c#/LL	.
.	.	.	.	16B/JJ)	.
.	.	.	.	[8d/	.
.	.	16CC#/Jk	.	.	.
=26	=26	=26	=26	=26	=26
!	!	!	!	!LO:TX:t=cresc&colon;--:problem:dynamics with extention lines	!LO:HP:a:t=cresc:--
2r	.	8.AA/L	.	(16d/LL]	<
.	.	.	.	16c#/JJ)	.
.	.	.	.	(16c#/LL	.
.	.	16GG#X/Jk	.	16B/JJ)	.
.	.	8.FF#/L	.	(16B/LL	.
.	.	.	.	16A/JJ)	.
.	.	.	.	8c#/	.
.	.	16CC#/Jk	.	.	.
=27	=27	=27	=27	=27	=27
2r	.	8.EE/L	.	(16B/LL	.
.	.	.	.	16A/JJ)	.
.	.	.	.	[8a/	[
.	.	16E/Jk	.	.	.
.	.	8A\	.	(16a/LL]	.
.	.	.	.	16g#X/	.
.	.	8r	.	16gn/	.
.	.	.	.	16f#/JJ)	.
=28	=28	=28	=28	=28	=28
!	!	!LO:TX:a:t=1	!	!	!
2r	.	2r	.	(16d#X/LL	.
.	.	.	.	16e/	.
.	.	.	.	16f#/	.
.	.	.	.	16e/JJ)	.
.	.	.	.	(16a/LL	.
.	.	.	.	16A/JJ)	.
.	.	.	.	16r	.
.	.	.	.	16A/	.
!	!	!LO:LB:g=original	!	!LO:LB:g=original	!
=29	=29	=29	=29	=29	=29
!	!LO:DY:rj	!	!LO:DY:t=f:rj	!	!LO:DY:rj
8AA/	f	8A\L	f	8A/L	f
8r	.	8a\J	.	8a/J	.
4r	.	(8.e\L	.	(8.e/L	.
.	.	16g\Jk)	.	16g/Jk)	.
=30	=30	=30	=30	=30	=30
8D\	.	16f#\LL	.	16f#/LL	.
.	.	16e\JJ	.	16e/JJ	.
8r	.	4d\	.	4d/	.
4r	.	.	.	.	.
.	.	16e\LL	.	(16e/LL	.
.	.	16d\JJ	.	16d/JJ)	.
=31	=31	=31	=31	=31	=31
8GG/	.	(16c#\LL	.	(16c#/LL	.
.	.	16B\JJ)	.	16B/JJ)	.
8r	.	4e\	.	4e/	.
4r	.	.	.	.	.
.	.	(16d\LL	.	(16d/LL	.
.	.	16B\JJ)	.	16B/JJ)	.
=32	=32	=32	=32	=32	=32
8D\	.	8d\	.	8d/	.
8r	.	4A\	.	4A/	.
4r	.	.	.	.	.
.	.	(16F#\LL	.	(16f#/LL	.
.	.	16G\JJ)	.	16g/JJ)	.
!LO:LB:g=original	!	!	!	!	!
=33	=33	=33	=33	=33	=33
8C#/	.	(8.A\L	.	(8.a\L	.
8r	.	.	.	.	.
.	.	16B\Jk	.	16b\Jk	.
8AA/	.	16c#\LL	.	16cc#\LL	.
.	.	16d\	.	16dd\	.
8r	.	16e\	.	16ee\	.
.	.	16g\JJ)	.	16gg\JJ)	.
=34	=34	=34	=34	=34	=34
8D\	.	(16f#\LL	.	(16f#/LL	.
.	.	16b\JJ)	.	16b/JJ)	.
8r	.	4a\	.	4a/	.
4BB^>/	.	.	.	.	.
.	.	(16g#X\LL	.	(16g#X/LL	.
.	.	16f#\JJ)	.	16f#/JJ)	.
!	!	!LO:LB:g=original	!	!LO:LB:g=original	!
=35	=35	=35	=35	=35	=35
!	!	!	!	!LO:TX:t=P:problem:mixed beam	!
8E\	.	8e\L	.	8e/L	.
8r	.	8d\J	.	8dd\J	.
8E\	.	(8.c#\L	.	(8.cc#\L	.
8r	.	.	.	.	.
.	.	16B\Jk)	.	16b\Jk)	.
=36	=36	=36	=36	=36	=36
(4AA/	.	8B\L	.	8b/L	.
.	.	[8a\J	.	[8a/J	.
8A\)	.	16a\LL]	.	(16a/LL]	.
.	.	(16g#X\	.	16g#X/	.
8r	.	16gn\	.	16gn/	.
.	.	16f#\JJ)	.	16f#/JJ)	.
=37	=37	=37	=37	=37	=37
8AA/	.	8A\L	.	8a/L	.
8r	.	8a\J	.	8a/J	.
4r	.	(8.e\L	.	(8.e/L	.
.	.	16g\Jk)	.	16g/Jk)	.
=38	=38	=38	=38	=38	=38
8D\	.	16f#\LL	.	16ff#\LL	.
.	.	16e\JJ	.	16ee\JJ	.
8r	.	4d\	.	4dd\	.
4r	.	.	.	.	.
.	.	(16e\LL	.	(16ee\LL	.
.	.	16d\JJ)	.	16dd\JJ)	.
!LO:LB:g=original	!	!	!	!	!
=39	=39	=39	=39	=39	=39
8GG/	.	16c#\LL	.	16cc#\LL	.
.	.	16B\JJ	.	16b\JJ	.
8r	.	4e\	.	4ee\	.
4r	.	.	.	.	.
.	.	(16d\LL	.	(16dd\LL	.
.	.	16B\JJ)	.	16b\JJ)	.
=40	=40	=40	=40	=40	=40
8D\	.	8d\	.	8dd\	.
8r	.	4A\	.	4a/	.
4r	.	.	.	.	.
.	.	(16F#\LL	.	(16f#/LL	.
.	.	16G\JJ)	.	16g/JJ)	.
!	!	!LO:LB:g=original	!	!LO:LB:g=original	!
=41	=41	=41	=41	=41	=41
8C#/	.	(8.A\L	.	(8.a\L	.
8r	.	.	.	.	.
.	.	16B\Jk	.	16b\Jk	.
8AA/	.	16c#\LL	.	16cc#\LL	.
.	.	16d\	.	16dd\	.
8r	.	16e\	.	16ee\	.
.	.	16g\JJ)	.	16gg\JJ)	.
=42	=42	=42	=42	=42	=42
8D\	.	(16f#\LL	.	16dd\LL	.
.	.	16b\J)	.	16dd\J	.
8r	.	8a\J	.	8ff#\J	.
4BB/	.	(8.d\L	.	8.ff#\L	.
.	.	16f#\Jk)	.	16dd\Jk	.
=43	=43	=43	=43	=43	=43
8GG/	.	(16d#X\LL	.	(16dd#X\LL	.
.	.	16f#\J	.	16ff#\J)	.
8r	.	8e\J)	.	8ee\J	.
4AA/	.	8.B\L	.	8.bb\L	.
.	.	16c#\Jk	.	16cc#\Jk	.
=44	=44	=44	=44	=44	=44
8D\	.	8e\	.	8ee\	.
4D\	.	4d\	.	4dd\	.
!LO:TX:a:t=Fine	!	!LO:TX:a:t=Fine	!	!LO:TX:a:t=Fine	!
8r	.	8r	.	8r	.
!LO:LB:g=original	!	!LO:LB:g=original	!	!LO:LB:g=original	!
=45!|:;	=45!|:	=45!|:;	=45!|:	=45!|:;	=45!|:;
*>C	*	*>C	*	*>C	*
!LO:TX:a:t=Trio	!LO:DY:rj	!LO:TX:a:t=Trio	!LO:DY:rj	!LO:TX:a:t=Trio	!LO:DY:rj
8BB/	p	(16d\LL	p	(16b\LL	p
.	.	16e\J)	.	16cc#\J)	.
8r	.	8f#\J	.	8dd\J	.
4r	.	8.g^\L	.	8.ee^\L	.
.	.	16e\Jk	.	16cc#\Jk	.
=46	=46	=46	=46	=46	=46
*rep	*	*	*	*	*
8BB/	.	(16f#\LL	.	(16dd\LL	.
.	.	16e\J	.	16cc#\J	.
8r	.	8d\J)	.	8b\J)	.
4r	.	8.g^\L	.	8.ee^\L	.
.	.	16e\Jk	.	16cc#\Jk	.
*Xrep	*	*	*	*	*
=47	=47	=47	=47	=47	=47
*	*	*2\right	*	*	*
*rep	*	*tremolo	*	*	*
8BB/	.	8f#\L	.	8dd\L	.
8r	.	8c#^\	.	8a#X^\J	.
4r	.	8f#\	.	8dd\L	.
.	.	8c#^\J	.	8a#^\J	.
*Xrep	*	*Xtremolo	*	*	*
=48	=48	=48	=48	=48	=48
*rep	*	*	*	*	*
8BB/	.	(8e\L	.	(8cc#\L	.
8r	.	16d\L	.	16b\L	.
.	.	16c#\JJ	.	16a#X\JJ	.
4r	.	16B\LL	.	16d/LL	.
.	.	16c#\	.	16f#/	.
.	.	16d\	.	16b/	.
.	.	16e\JJ)	.	16cc#/JJ)	.
*Xrep	*	*	*	*	*
=49	=49	=49	=49	=49	=49
*rep	*	*	*	*	*
8BB/	.	(16d\LL	.	(16b\LL	.
.	.	16e\J)	.	16cc#\J)	.
8r	.	8f#\J	.	8dd\J	.
4r	.	8.g^\L	.	8.ee^\L	.
.	.	16e\Jk	.	16cc#\Jk	.
*Xrep	*	*	*	*	*
=50	=50	=50	=50	=50	=50
*rep	*	*	*	*	*
8BB/	.	(16f#\LL	.	(16dd\LL	.
.	.	16e\J	.	16cc#\J	.
8r	.	8d\J)	.	8b\J)	.
4r	.	8.g^\L	.	8.ee^\L	.
.	.	16e\Jk	.	16cc#\Jk	.
*Xrep	*	*	*	*	*
!LO:LB:g=original	!	!LO:LB:g=original	!	!LO:LB:g=original	!
=51	=51	=51	=51	=51	=51
8BB/	.	8f#\L	.	8dd\L	.
8r	.	8c#\J	.	8a#X\J	.
4r	.	[4f#\	.	[4dd^\	.
=52	=52	=52	=52	=52	=52
8BB/	.	(16f#\LL]	.	16dd\LL]	.
.	.	16e\	.	(16cc#\	.
8r	.	16d\	.	16b\	.
.	.	16c#X\JJ	.	16a#X\JJ)	.
4r	.	4B\)	.	4d/	.
=53:|!	=53:|!	=53:|!	=53:|!	=53:|!	=53:|!
*>D	*	*>D	*	*>D	*
!	!	!	!LO:DY:rj	!	!
8r	.	[2c#\	p	8c#/L	.
8CC#/L	.	.	.	(16G#X/L	.
.	.	.	.	16A/JJ)	.
8C#/J	.	.	.	8B/L	.
8r	.	.	.	(16A/L	.
.	.	.	.	16G#/JJ)	.
=54	=54	=54	=54	=54	=54
*rep	*	*	*	*	*
!	!	!	!	!	!LO:HP:a
8r	.	2c#\_	.	(16F#/LL	<
.	.	.	.	16G#X/	.
8CC#/L	.	.	.	16A/	.
.	.	.	.	16B/JJ	.
8C#/J	.	.	.	16B#X/LL	.
.	.	.	.	16c#/	[
8r	.	.	.	16f#/)	.
.	.	.	.	32r	.
.	.	.	.	32d/JJk	.
*Xrep	*	*	*	*	*
=55	=55	=55	=55	=55	=55
*rep	*	*	*	*	*
!	!	!	!	!	!LO:HP:a
8r	.	2c#\_	.	8c#/L	>
8CC#/L	.	.	.	16G#X/L	.
.	.	.	.	16A/JJ	.
8C#/J	.	.	.	(16c#/LL	]
.	.	.	.	16B/	.
8r	.	.	.	16A/	.
.	.	.	.	16G#/JJ)	.
*Xrep	*	*	*	*	*
=56	=56	=56	=56	=56	=56
8A\L	.	2c#\]	.	(16B/LL	.
.	.	.	.	16A/)	.
8C#\J	.	.	.	16G#X/	.
.	.	.	.	16A/JJ	.
4FF#/	.	.	.	8F#/L	.
.	.	.	.	(16G#/L	.
.	.	.	.	16A/JJ)	.
!LO:LB:g=original	!	!LO:LB:g=original	!	!LO:LB:g=original	!
=57	=57	=57	=57	=57	=57
!	!	!	!LO:DY:rj	!	!LO:DY:rj
8r	.	(2d#X\	p	8B/L	p
!	!LO:DY:rj	!	!	!	!
4BB/	p	.	.	(16F#/L	.
.	.	.	.	16G#X/JJ)	.
.	.	.	.	8A/L	.
8r	.	.	.	(16G#/L	.
.	.	.	.	16F#/JJ)	.
=58	=58	=58	=58	=58	=58
*rep	*	*	*	*	*
!	!	!	!	!	!LO:HP:a
8r	.	2e\)	.	(16E/LL	<
.	.	.	.	16F#/	.
4BB/	.	.	.	16G#X/	.
.	.	.	.	16A/JJ	.
.	.	.	.	16A#X/LL	.
.	.	.	.	16B/	[
8r	.	.	.	16.e/)	.
.	.	.	.	32c#/JJk	.
*Xrep	*	*	*	*	*
=59	=59	=59	=59	=59	=59
*rep	*	*	*	*	*
8r	.	4.d#X\	.	8B/L	.
4BB/	.	.	.	(16F#/L	.
.	.	.	.	16G#X/JJ)	.
.	.	.	.	(16B/LL	.
.	.	.	.	16A/	.
8r	.	8B\	.	16G#/	.
.	.	.	.	16F#/JJ)	.
*Xrep	*	*	*	*	*
=60	=60	=60	=60	=60	=60
8G#X\L	.	8e\L	.	(16A/LL	.
.	.	.	.	16G#X/	.
8BB\J	.	8B\J	.	16F#/	.
.	.	.	.	16G#/JJ)	.
4E\	.	4e\	.	8E/L	.
.	.	.	.	(16F#/L	.
.	.	.	.	16G#/JJ)	.
=61	=61	=61	=61	=61	=61
!	!LO:DY:rj	!LO:TX:a:t=2	!	!	!LO:DY:rj
8D#X\	p	2r	.	(16F##X/LL	p
.	.	.	.	16G#X/	.
8r	.	.	.	16A#X/	.
.	.	.	.	16B/JJ	.
4r	.	.	.	16d#X/LL	.
.	.	.	.	16c#/	.
.	.	.	.	16B/	.
.	.	.	.	16A#/JJ)	.
=62	=62	=62	=62	=62	=62
8D#X\	.	2r	.	(16c#/LL	.
.	.	.	.	16B/)	.
8r	.	.	.	16A#X/	.
.	.	.	.	16B/JJ	.
4D#\	.	.	.	8G/L	.
.	.	.	.	(16A#/L	.
.	.	.	.	16B/JJ)	.
!LO:LB:g=original	!	!LO:LB:g=original	!	!LO:LB:g=original	!
=63	=63	=63	=63	=63	=63
!	!	!LO:TX:b:t=po-co a po-co cre-scen---do:ext=cd:problem:dynamics with extention lines	!	!	!
8D#X\	.	8D#X\	<	(16B#X/LL	.
.	.	.	.	16c#/	.
!	!	!	!	!LO:TX:b:t=po-co a po-co cre-scen---do:ext=cd:problem:dynamics with extention lines	!
8r	.	8r	.	16d#X/	<
.	.	.	.	16e/JJ	.
4r	.	4r	.	16g#X/LL	.
.	.	.	.	16f#/	.
.	.	.	.	16e/	.
.	.	.	.	16d#/JJ)	.
=64	=64	=64	=64	=64	=64
8C#/	.	8C#/	.	(16f#/LL	.
.	.	.	.	16e/)	.
8r	.	8r	.	16d#X/	.
.	.	.	.	16e/JJ	.
4C#/	.	4C#/	.	8c#/L	.
.	.	.	.	16d#/L	.
.	.	.	.	16e/JJ	.
=65	=65	=65	=65	=65	=65
*2\right	*	*	*	*	*
[2E\	.	[2E\	.	(16d#X/LL	.
.	.	.	.	16c#/)	.
.	.	.	.	16r	.
.	.	.	.	16c#/JJ	.
.	.	.	.	(16d#/LL	.
.	.	.	.	16c#/)	.
.	.	.	.	16g#X/	.
.	.	.	.	16e/JJ	.
=66	=66	=66	=66	=66	=66
2E\]	.	2E\]	.	(16d#X/LL	.
.	.	.	.	16c#/)	.
.	.	.	.	16B#X/	.
.	.	.	.	16c#/JJ	.
.	.	.	.	8.e/L	.
.	.	.	.	16c#/Jk	.
=67	=67	=67	=67	=67	=67
[2E\	.	[2E\	.	(16dn/LL	.
.	.	.	.	16cn/)	.
.	.	.	.	16r	.
.	.	.	.	(16c/JJ	.
.	.	.	.	16d/LL	.
.	.	.	.	16c/)	.
.	.	.	.	16gn/	.
.	.	.	.	16e/JJ	.
=68	=68	=68	=68	=68	=68
2E\]	.	2E\]	.	(16d/LL	.
.	.	.	.	16cn/)	.
.	.	.	.	16B/	.
.	.	.	.	16c/JJ	.
.	.	.	.	(8.e/L	.
.	.	.	.	16c/Jk)	.
!LO:LB:g=original	!	!LO:LB:g=original	!	!LO:LB:g=original	!
=69	=69	=69	=69	=69	=69
(8.F#\L	.	8.F#\L	.	(16B/LL	.
.	.	.	.	16A#X/J)	.
.	.	.	.	8A#/J	.
16G\Jk)	.	16G\Jk	.	.	.
8F#\L	.	8F#\L	.	(16g/LL	.
.	.	.	.	16f#/)	.
8F#\J	.	8F#\J	.	16d/	.
.	.	.	.	16B/JJ	.
=70	=70	=70	=70	=70	=70
*rep	*	*rep	*	*rep	*
(8.F#\L	.	8.F#\L	.	(16B/LL	.
.	.	.	.	16A#X/J)	.
.	.	.	.	8A#/J	.
16G\Jk)	.	16G\Jk	.	.	.
8F#\L	.	8F#\L	.	(16g/LL	.
.	.	.	.	16f#/)	.
8F#\J	.	8F#\J	.	16d/	.
.	.	.	.	16B/JJ	.
*Xrep	*	*Xrep	*	*Xrep	*
=71	=71	=71	=71	=71	=71
(2F#\	.	[2F#\	.	(16A#X/LL	.
.	.	.	.	16g/J)	.
.	.	.	.	[8f#/J	.
.	.	.	.	16f#/LL]	.
.	.	.	.	16g/J	.
.	.	.	.	[8f#/J	.
=72	=72	=72	=72	=72	=72
[4FF#/)	.	4F#\]	.	16f#/LL]	.
.	.	.	.	(16g/	.
.	.	.	.	16f#/	.
.	.	.	.	16e#X/JJ)	.
8FF#/]	.	8F#\	[	16f#/LL	.
.	.	.	.	16a#X/	.
8r	.	8r	.	16b/	.
.	.	.	.	16cc#/JJ	[[
=73	=73	=73	=73	=73	=73
!	!LO:DY:rj	!	!LO:DY:rj	!	!LO:DY:rj
8BB/	f	8BB/	f	(16dd\LL	f
.	.	.	.	16ee\J)	.
8r	.	8r	.	8ff#\J	.
4r	.	4r	.	8.gg\L	.
.	.	.	.	16ee\Jk	.
=74	=74	=74	=74	=74	=74
*rep	*	*rep	*	*	*
8BB/	.	8BB/	.	16ff#\LL	.
.	.	.	.	16ee\J	.
8r	.	8r	.	8dd\J	.
4r	.	4r	.	8.gg\L	.
.	.	.	.	16ee\Jk	.
*Xrep	*	*Xrep	*	*	*
!LO:LB:g=original	!	!	!	!LO:LB:g=original	!
=75	=75	=75	=75	=75	=75
8BB/	.	8BB/	.	8ff#\L	.
8r	.	8r	.	8cc#^\J	.
8BB/	.	8BB/	.	8ff#\L	.
8r	.	8r	.	8cc#^\J	.
!	!	!LO:LB:g=original	!	!	!
=76	=76	=76	=76	=76	=76
8BB/	.	8BB/	.	8ee\L	.
8r	.	8r	.	(16dd\L	.
.	.	.	.	16cc#\JJ)	.
4r	.	4r	.	(16b\LL	.
.	.	.	.	16cc#\	.
.	.	.	.	16dd\	.
.	.	.	.	16ee\JJ)	.
=77	=77	=77	=77	=77	=77
*rep	*	*rep	*	*	*
8BB/	.	8BB/	.	(16dd\LL	.
.	.	.	.	16ee\J)	.
8r	.	8r	.	8ff#\J	.
4r	.	4r	.	(8.gg\L	.
.	.	.	.	16ee\Jk)	.
*Xrep	*	*Xrep	*	*	*
=78	=78	=78	=78	=78	=78
*rep	*	*rep	*	*	*
8BB/	.	8BB/	.	(16ff#\LL	.
.	.	.	.	16ee\J)	.
8r	.	8r	.	8dd\J	.
4r	.	4r	.	(8.gg\L	.
.	.	.	.	16ee\Jk)	.
*Xrep	*	*Xrep	*	*	*
=79	=79	=79	=79	=79	=79
8BB/	.	8BB/	.	8ff#\L	.
8r	.	8r	.	8cc#\J	.
4r	.	4r	.	[4ff#^\	.
=80	=80	=80	=80	=80	=80
8BB/	.	8BB/	.	(16ff#\LL]	.
.	.	.	.	16ee\)	.
8r	.	8r	.	16dd\	.
.	.	.	.	16cc#\JJ	.
!LO:TX:a:t=Krakowiak\nD&colon;C&colon;al Fine.	!	!LO:TX:a:t=Krakowiak\nD&colon;C&colon;al Fine.	!	!LO:TX:a:t=Krakowiak\nD&colon;C&colon;al Fine.	!
!LO:TX:t=[segno]:color=blue	!	!LO:TX:t=[segno]:color=blue	!	!LO:TX:t=[segno]:color=blue	!
4BB/	.	4BB/	.	4b\	.
==	==	==	==	==	==
*-	*-	*-	*-	*-	*-
!!!system-decoration: s1[(s2,s3)]
!!!RDF**kern: < = below
!!!RDF**kern: > = above
!!!RDF**dynam: f = "fo"
!!!ENC: Filip Voros
!!!END: 2021-11-04
!!!ENC: Marta Chmielewska
!!!END: 2021-11-08
